X: 31298
T: Paddy Kelly's
R: reel
M: 4/4
K: Gmajor
|:Bc|dG3 dGBd|c=F3 c=FAc|dG3 DGBG|BdcA GABc|
dG3 dGBd|c=F3 c=FAc|dG3 DGBG|BdcA G2:|
|:Bc|dggf gagf|d2cd ABcA|dg3 bgaf|defg a2gf|
dggf gagf|d2cd ABcA|dG3 DGBG|BdcA G2:|

